images/3234294.svg

<?xml version="1.0" encoding="UTF-8"?>
<svg xmlns="http://www.w3.org/2000/svg" xmlns:xlink="http://www.w3.org/1999/xlink" width="300pt" height="300pt" viewBox="0 0 300 300" version="1.1">
<defs>
<g>
<symbol overflow="visible" id="glyph0-0">
<path style="stroke:none;" d="M 0.640625 2.296875 L 0.640625 -9.171875 L 7.140625 -9.171875 L 7.140625 2.296875 Z M 1.375 1.578125 L 6.421875 1.578125 L 6.421875 -8.4375 L 1.375 -8.4375 Z M 1.375 1.578125 "/>
</symbol>
<symbol overflow="visible" id="glyph0-1">
<path style="stroke:none;" d="M 1.28125 -9.484375 L 3 -9.484375 L 7.203125 -1.546875 L 7.203125 -9.484375 L 8.453125 -9.484375 L 8.453125 0 L 6.71875 0 L 2.515625 -7.921875 L 2.515625 0 L 1.28125 0 Z M 1.28125 -9.484375 "/>
</symbol>
<symbol overflow="visible" id="glyph0-2">
<path style="stroke:none;" d="M 1.28125 -9.484375 L 2.5625 -9.484375 L 2.5625 -5.59375 L 7.21875 -5.59375 L 7.21875 -9.484375 L 8.5 -9.484375 L 8.5 0 L 7.21875 0 L 7.21875 -4.515625 L 2.5625 -4.515625 L 2.5625 0 L 1.28125 0 Z M 1.28125 -9.484375 "/>
</symbol>
<symbol overflow="visible" id="glyph0-3">
<path style="stroke:none;" d="M 5.125 -8.609375 C 4.1875 -8.609375 3.441406 -8.257812 2.890625 -7.5625 C 2.347656 -6.875 2.078125 -5.929688 2.078125 -4.734375 C 2.078125 -3.535156 2.347656 -2.585938 2.890625 -1.890625 C 3.441406 -1.203125 4.1875 -0.859375 5.125 -0.859375 C 6.050781 -0.859375 6.785156 -1.203125 7.328125 -1.890625 C 7.878906 -2.585938 8.15625 -3.535156 8.15625 -4.734375 C 8.15625 -5.929688 7.878906 -6.875 7.328125 -7.5625 C 6.785156 -8.257812 6.050781 -8.609375 5.125 -8.609375 Z M 5.125 -9.65625 C 6.445312 -9.65625 7.503906 -9.207031 8.296875 -8.3125 C 9.097656 -7.414062 9.5 -6.222656 9.5 -4.734375 C 9.5 -3.234375 9.097656 -2.035156 8.296875 -1.140625 C 7.503906 -0.253906 6.445312 0.1875 5.125 0.1875 C 3.789062 0.1875 2.722656 -0.253906 1.921875 -1.140625 C 1.128906 -2.035156 0.734375 -3.234375 0.734375 -4.734375 C 0.734375 -6.222656 1.128906 -7.414062 1.921875 -8.3125 C 2.722656 -9.207031 3.789062 -9.65625 5.125 -9.65625 Z M 5.125 -9.65625 "/>
</symbol>
</g>
</defs>
<g id="surface39189">
<rect x="0" y="0" width="300" height="300" style="fill:rgb(100%,100%,100%);fill-opacity:1;stroke:none;"/>
<path style="fill:none;stroke-width:1.2;stroke-linecap:butt;stroke-linejoin:miter;stroke:rgb(0%,0%,0%);stroke-opacity:1;stroke-miterlimit:10;" d="M 264.75 109.542969 L 237.5625 129.769531 "/>
<path style="fill:none;stroke-width:1.2;stroke-linecap:butt;stroke-linejoin:miter;stroke:rgb(0%,0%,100%);stroke-opacity:1;stroke-miterlimit:10;" d="M 260.824219 75.882812 L 262.789062 92.710938 "/>
<path style="fill:none;stroke-width:1.2;stroke-linecap:butt;stroke-linejoin:miter;stroke:rgb(0%,0%,0%);stroke-opacity:1;stroke-miterlimit:10;" d="M 262.789062 92.710938 L 264.75 109.542969 "/>
<path style="fill:none;stroke-width:1.2;stroke-linecap:butt;stroke-linejoin:miter;stroke:rgb(0%,0%,0%);stroke-opacity:1;stroke-miterlimit:10;" d="M 237.5625 129.769531 L 222.003906 123.054688 "/>
<path style="fill:none;stroke-width:1.2;stroke-linecap:butt;stroke-linejoin:miter;stroke:rgb(0%,0%,100%);stroke-opacity:1;stroke-miterlimit:10;" d="M 222.003906 123.054688 L 206.449219 116.339844 "/>
<path style="fill:none;stroke-width:1.2;stroke-linecap:butt;stroke-linejoin:miter;stroke:rgb(0%,0%,100%);stroke-opacity:1;stroke-miterlimit:10;" d="M 206.449219 116.339844 L 204.484375 99.507812 "/>
<path style="fill:none;stroke-width:1.2;stroke-linecap:butt;stroke-linejoin:miter;stroke:rgb(0%,0%,0%);stroke-opacity:1;stroke-miterlimit:10;" d="M 204.484375 99.507812 L 202.523438 82.679688 "/>
<path style="fill:none;stroke-width:1.2;stroke-linecap:butt;stroke-linejoin:miter;stroke:rgb(0%,0%,100%);stroke-opacity:1;stroke-miterlimit:10;" d="M 206.449219 116.339844 L 192.855469 126.453125 "/>
<path style="fill:none;stroke-width:1.2;stroke-linecap:butt;stroke-linejoin:miter;stroke:rgb(0%,0%,0%);stroke-opacity:1;stroke-miterlimit:10;" d="M 192.855469 126.453125 L 179.257812 136.570312 "/>
<path style=" stroke:none;fill-rule:nonzero;fill:rgb(100%,100%,100%);fill-opacity:1;" d="M 201.449219 108.339844 L 211.449219 108.339844 L 211.449219 124.339844 L 201.449219 124.339844 Z M 201.449219 108.339844 "/>
<g style="fill:rgb(0%,0%,100%);fill-opacity:1;">
  <use xlink:href="#glyph0-1" x="201.449219" y="120.71582"/>
</g>
<path style="fill:none;stroke-width:1.2;stroke-linecap:butt;stroke-linejoin:miter;stroke:rgb(0%,0%,0%);stroke-opacity:1;stroke-miterlimit:10;" d="M 202.523438 82.679688 L 229.710938 62.449219 "/>
<path style="fill:none;stroke-width:1.2;stroke-linecap:butt;stroke-linejoin:miter;stroke:rgb(0%,0%,0%);stroke-opacity:1;stroke-miterlimit:10;" d="M 229.710938 62.449219 L 245.269531 69.164062 "/>
<path style="fill:none;stroke-width:1.2;stroke-linecap:butt;stroke-linejoin:miter;stroke:rgb(0%,0%,100%);stroke-opacity:1;stroke-miterlimit:10;" d="M 245.269531 69.164062 L 260.824219 75.882812 "/>
<path style=" stroke:none;fill-rule:nonzero;fill:rgb(100%,100%,100%);fill-opacity:1;" d="M 250.824219 67.882812 L 270.824219 67.882812 L 270.824219 83.882812 L 250.824219 83.882812 Z M 250.824219 67.882812 "/>
<g style="fill:rgb(0%,0%,100%);fill-opacity:1;">
  <use xlink:href="#glyph0-1" x="250.824219" y="80.258789"/>
  <use xlink:href="#glyph0-2" x="260.793945" y="80.258789"/>
</g>
<path style="fill:none;stroke-width:1.2;stroke-linecap:butt;stroke-linejoin:miter;stroke:rgb(0%,0%,0%);stroke-opacity:1;stroke-miterlimit:10;" d="M 179.257812 136.570312 L 163.703125 129.851562 "/>
<path style="fill:none;stroke-width:1.2;stroke-linecap:butt;stroke-linejoin:miter;stroke:rgb(0%,0%,100%);stroke-opacity:1;stroke-miterlimit:10;" d="M 163.703125 129.851562 L 148.144531 123.136719 "/>
<path style="fill:none;stroke-width:1.2;stroke-linecap:butt;stroke-linejoin:miter;stroke:rgb(0%,0%,0%);stroke-opacity:1;stroke-miterlimit:10;" d="M 172.988281 142.546875 L 160.542969 137.171875 "/>
<path style="fill:none;stroke-width:1.2;stroke-linecap:butt;stroke-linejoin:miter;stroke:rgb(0%,0%,100%);stroke-opacity:1;stroke-miterlimit:10;" d="M 160.542969 137.171875 L 148.097656 131.800781 "/>
<path style="fill:none;stroke-width:1.2;stroke-linecap:butt;stroke-linejoin:miter;stroke:rgb(0%,0%,0%);stroke-opacity:1;stroke-miterlimit:10;" d="M 183.183594 170.230469 L 179.257812 136.570312 "/>
<path style="fill:none;stroke-width:1.2;stroke-linecap:butt;stroke-linejoin:miter;stroke:rgb(0%,0%,100%);stroke-opacity:1;stroke-miterlimit:10;" d="M 148.144531 123.136719 L 134.550781 133.25 "/>
<path style="fill:none;stroke-width:1.2;stroke-linecap:butt;stroke-linejoin:miter;stroke:rgb(0%,0%,0%);stroke-opacity:1;stroke-miterlimit:10;" d="M 134.550781 133.25 L 120.957031 143.367188 "/>
<path style=" stroke:none;fill-rule:nonzero;fill:rgb(100%,100%,100%);fill-opacity:1;" d="M 143.144531 115.136719 L 153.144531 115.136719 L 153.144531 131.136719 L 143.144531 131.136719 Z M 143.144531 115.136719 "/>
<g style="fill:rgb(0%,0%,100%);fill-opacity:1;">
  <use xlink:href="#glyph0-1" x="143.144531" y="127.512695"/>
</g>
<path style="fill:none;stroke-width:1.2;stroke-linecap:butt;stroke-linejoin:miter;stroke:rgb(0%,0%,0%);stroke-opacity:1;stroke-miterlimit:10;" d="M 120.957031 143.367188 L 122.917969 160.195312 "/>
<path style="fill:none;stroke-width:1.2;stroke-linecap:butt;stroke-linejoin:miter;stroke:rgb(0%,0%,100%);stroke-opacity:1;stroke-miterlimit:10;" d="M 122.917969 160.195312 L 124.882812 177.027344 "/>
<path style="fill:none;stroke-width:1.2;stroke-linecap:butt;stroke-linejoin:miter;stroke:rgb(0%,0%,0%);stroke-opacity:1;stroke-miterlimit:10;" d="M 129.269531 145.808594 L 130.839844 159.273438 "/>
<path style="fill:none;stroke-width:1.2;stroke-linecap:butt;stroke-linejoin:miter;stroke:rgb(0%,0%,100%);stroke-opacity:1;stroke-miterlimit:10;" d="M 130.839844 159.273438 L 132.410156 172.738281 "/>
<path style="fill:none;stroke-width:1.2;stroke-linecap:butt;stroke-linejoin:miter;stroke:rgb(0%,0%,0%);stroke-opacity:1;stroke-miterlimit:10;" d="M 120.957031 143.367188 L 89.84375 129.933594 "/>
<path style="fill:none;stroke-width:1.2;stroke-linecap:butt;stroke-linejoin:miter;stroke:rgb(0%,0%,100%);stroke-opacity:1;stroke-miterlimit:10;" d="M 124.882812 177.027344 L 140.4375 183.742188 "/>
<path style="fill:none;stroke-width:1.2;stroke-linecap:butt;stroke-linejoin:miter;stroke:rgb(0%,0%,0%);stroke-opacity:1;stroke-miterlimit:10;" d="M 140.4375 183.742188 L 155.996094 190.457031 "/>
<path style=" stroke:none;fill-rule:nonzero;fill:rgb(100%,100%,100%);fill-opacity:1;" d="M 119.882812 169.027344 L 129.882812 169.027344 L 129.882812 185.027344 L 119.882812 185.027344 Z M 119.882812 169.027344 "/>
<g style="fill:rgb(0%,0%,100%);fill-opacity:1;">
  <use xlink:href="#glyph0-1" x="119.882812" y="181.40332"/>
</g>
<path style="fill:none;stroke-width:1.2;stroke-linecap:butt;stroke-linejoin:miter;stroke:rgb(0%,0%,0%);stroke-opacity:1;stroke-miterlimit:10;" d="M 155.996094 190.457031 L 159.921875 224.117188 "/>
<path style="fill:none;stroke-width:1.2;stroke-linecap:butt;stroke-linejoin:miter;stroke:rgb(0%,0%,0%);stroke-opacity:1;stroke-miterlimit:10;" d="M 164.308594 192.902344 L 167.449219 219.828125 "/>
<path style="fill:none;stroke-width:1.2;stroke-linecap:butt;stroke-linejoin:miter;stroke:rgb(0%,0%,0%);stroke-opacity:1;stroke-miterlimit:10;" d="M 183.183594 170.230469 L 155.996094 190.457031 "/>
<path style="fill:none;stroke-width:1.2;stroke-linecap:butt;stroke-linejoin:miter;stroke:rgb(0%,0%,0%);stroke-opacity:1;stroke-miterlimit:10;" d="M 159.921875 224.117188 L 191.035156 237.550781 "/>
<path style="fill:none;stroke-width:1.2;stroke-linecap:butt;stroke-linejoin:miter;stroke:rgb(0%,0%,0%);stroke-opacity:1;stroke-miterlimit:10;" d="M 191.035156 237.550781 L 218.222656 217.320312 "/>
<path style="fill:none;stroke-width:1.2;stroke-linecap:butt;stroke-linejoin:miter;stroke:rgb(0%,0%,0%);stroke-opacity:1;stroke-miterlimit:10;" d="M 188.992188 229.128906 L 210.742188 212.945312 "/>
<path style="fill:none;stroke-width:1.2;stroke-linecap:butt;stroke-linejoin:miter;stroke:rgb(0%,0%,0%);stroke-opacity:1;stroke-miterlimit:10;" d="M 218.222656 217.320312 L 214.296875 183.660156 "/>
<path style="fill:none;stroke-width:1.2;stroke-linecap:butt;stroke-linejoin:miter;stroke:rgb(0%,0%,0%);stroke-opacity:1;stroke-miterlimit:10;" d="M 214.296875 183.660156 L 183.183594 170.230469 "/>
<path style="fill:none;stroke-width:1.2;stroke-linecap:butt;stroke-linejoin:miter;stroke:rgb(0%,0%,0%);stroke-opacity:1;stroke-miterlimit:10;" d="M 208.027344 189.636719 L 183.136719 178.894531 "/>
<path style="fill:none;stroke-width:1.2;stroke-linecap:butt;stroke-linejoin:miter;stroke:rgb(0%,0%,0%);stroke-opacity:1;stroke-miterlimit:10;" d="M 89.84375 129.933594 L 60.691406 147.210938 "/>
<path style="fill:none;stroke-width:1.2;stroke-linecap:butt;stroke-linejoin:miter;stroke:rgb(0%,0%,0%);stroke-opacity:1;stroke-miterlimit:10;" d="M 82.863281 124.800781 L 59.539062 138.625 "/>
<path style="fill:none;stroke-width:1.2;stroke-linecap:butt;stroke-linejoin:miter;stroke:rgb(0%,0%,0%);stroke-opacity:1;stroke-miterlimit:10;" d="M 82.421875 96.867188 L 89.84375 129.933594 "/>
<path style="fill:none;stroke-width:1.2;stroke-linecap:butt;stroke-linejoin:miter;stroke:rgb(0%,0%,0%);stroke-opacity:1;stroke-miterlimit:10;" d="M 60.691406 147.210938 L 47.96875 136.015625 "/>
<path style="fill:none;stroke-width:1.2;stroke-linecap:butt;stroke-linejoin:miter;stroke:rgb(100%,0%,0%);stroke-opacity:1;stroke-miterlimit:10;" d="M 47.96875 136.015625 L 35.25 124.824219 "/>
<path style="fill:none;stroke-width:1.2;stroke-linecap:butt;stroke-linejoin:miter;stroke:rgb(100%,0%,0%);stroke-opacity:1;stroke-miterlimit:10;" d="M 35.25 124.824219 L 41.964844 109.265625 "/>
<path style="fill:none;stroke-width:1.2;stroke-linecap:butt;stroke-linejoin:miter;stroke:rgb(0%,0%,0%);stroke-opacity:1;stroke-miterlimit:10;" d="M 41.964844 109.265625 L 48.679688 93.710938 "/>
<path style=" stroke:none;fill-rule:nonzero;fill:rgb(100%,100%,100%);fill-opacity:1;" d="M 30.25 116.824219 L 41.25 116.824219 L 41.25 132.824219 L 30.25 132.824219 Z M 30.25 116.824219 "/>
<g style="fill:rgb(100%,0%,0%);fill-opacity:1;">
  <use xlink:href="#glyph0-3" x="30.25" y="129.200195"/>
</g>
<path style="fill:none;stroke-width:1.2;stroke-linecap:butt;stroke-linejoin:miter;stroke:rgb(0%,0%,0%);stroke-opacity:1;stroke-miterlimit:10;" d="M 48.679688 93.710938 L 82.421875 96.867188 "/>
<path style="fill:none;stroke-width:1.2;stroke-linecap:butt;stroke-linejoin:miter;stroke:rgb(0%,0%,0%);stroke-opacity:1;stroke-miterlimit:10;" d="M 51.3125 101.964844 L 78.304688 104.492188 "/>
</g>
</svg>

<svg xmlns="http://www.w3.org/2000/svg" xmlns:xlink="http://www.w3.org/1999/xlink" width="300pt" height="300pt" viewBox="0 0 300 300"><defs><symbol overflow="visible"><path d="M.64 2.297v-11.47h6.5v11.47zm.735-.72h5.047V-8.436H1.375zm0 0"/></symbol><symbol overflow="visible" id="a"><path d="M1.28-9.484H3l4.203 7.937v-7.937h1.25V0H6.72L2.515-7.922V0H1.28zm0 0"/></symbol><symbol overflow="visible" id="b"><path d="M1.28-9.484h1.282v3.89H7.22v-3.89H8.5V0H7.22v-4.516H2.562V0H1.28zm0 0"/></symbol><symbol overflow="visible" id="c"><path d="M5.125-8.61c-.938 0-1.684.352-2.234 1.047-.542.688-.812 1.633-.812 2.83 0 1.198.27 2.147.813 2.842.55.687 1.297 1.03 2.235 1.03.926 0 1.66-.343 2.203-1.03.55-.696.828-1.645.828-2.844 0-1.196-.277-2.14-.828-2.829-.543-.695-1.277-1.046-2.203-1.046zm0-1.046c1.32 0 2.38.45 3.172 1.344.8.898 1.203 2.09 1.203 3.578 0 1.5-.402 2.7-1.203 3.593C7.504-.255 6.445.186 5.125.186c-1.336 0-2.402-.44-3.203-1.328C1.13-2.036.734-3.235.734-4.735c0-1.49.395-2.68 1.188-3.579.8-.894 1.867-1.343 3.203-1.343zm0 0"/></symbol></defs><g><path fill="#fff" d="M0 0h300v300H0z"/><path d="M264.75 109.543l-27.188 20.227" stroke-width="1.2" stroke="#000" stroke-miterlimit="10" fill="none"/><path d="M260.824 75.883l1.965 16.828" stroke-width="1.2" stroke="#00f" stroke-miterlimit="10" fill="none"/><path d="M262.79 92.71l1.96 16.833M237.563 129.77l-15.56-6.715" stroke-width="1.2" stroke="#000" stroke-miterlimit="10" fill="none"/><path d="M222.004 123.055l-15.555-6.715M206.45 116.34l-1.966-16.832" stroke-width="1.2" stroke="#00f" stroke-miterlimit="10" fill="none"/><path d="M204.484 99.508l-1.96-16.828" stroke-width="1.2" stroke="#000" stroke-miterlimit="10" fill="none"/><path d="M206.45 116.34l-13.595 10.113" stroke-width="1.2" stroke="#00f" stroke-miterlimit="10" fill="none"/><path d="M192.855 126.453l-13.597 10.117" stroke-width="1.2" stroke="#000" stroke-miterlimit="10" fill="none"/><path d="M201.45 108.34h10v16h-10zm0 0" fill="#fff"/><use xlink:href="#a" x="201.449" y="120.716" fill="#00f"/><path d="M202.523 82.68l27.188-20.23M229.71 62.45l15.56 6.714" stroke-width="1.2" stroke="#000" stroke-miterlimit="10" fill="none"/><path d="M245.27 69.164l15.554 6.72" stroke-width="1.2" stroke="#00f" stroke-miterlimit="10" fill="none"/><path d="M250.824 67.883h20v16h-20zm0 0" fill="#fff"/><g fill="#00f"><use xlink:href="#a" x="250.824" y="80.259"/><use xlink:href="#b" x="260.794" y="80.259"/></g><path d="M179.258 136.57l-15.555-6.718" stroke-width="1.2" stroke="#000" stroke-miterlimit="10" fill="none"/><path d="M163.703 129.852l-15.558-6.715" stroke-width="1.2" stroke="#00f" stroke-miterlimit="10" fill="none"/><path d="M172.988 142.547l-12.445-5.375" stroke-width="1.2" stroke="#000" stroke-miterlimit="10" fill="none"/><path d="M160.543 137.172l-12.445-5.37" stroke-width="1.2" stroke="#00f" stroke-miterlimit="10" fill="none"/><path d="M183.184 170.23l-3.926-33.66" stroke-width="1.2" stroke="#000" stroke-miterlimit="10" fill="none"/><path d="M148.145 123.137L134.55 133.25" stroke-width="1.2" stroke="#00f" stroke-miterlimit="10" fill="none"/><path d="M134.55 133.25l-13.593 10.117" stroke-width="1.2" stroke="#000" stroke-miterlimit="10" fill="none"/><path d="M143.145 115.137h10v16h-10zm0 0" fill="#fff"/><use xlink:href="#a" x="143.145" y="127.513" fill="#00f"/><path d="M120.957 143.367l1.96 16.828" stroke-width="1.2" stroke="#000" stroke-miterlimit="10" fill="none"/><path d="M122.918 160.195l1.965 16.832" stroke-width="1.2" stroke="#00f" stroke-miterlimit="10" fill="none"/><path d="M129.27 145.81l1.57 13.463" stroke-width="1.2" stroke="#000" stroke-miterlimit="10" fill="none"/><path d="M130.84 159.273l1.57 13.465" stroke-width="1.2" stroke="#00f" stroke-miterlimit="10" fill="none"/><path d="M120.957 143.367l-31.113-13.433" stroke-width="1.2" stroke="#000" stroke-miterlimit="10" fill="none"/><path d="M124.883 177.027l15.555 6.715" stroke-width="1.2" stroke="#00f" stroke-miterlimit="10" fill="none"/><path d="M140.438 183.742l15.558 6.715" stroke-width="1.2" stroke="#000" stroke-miterlimit="10" fill="none"/><path d="M119.883 169.027h10v16h-10zm0 0" fill="#fff"/><use xlink:href="#a" x="119.883" y="181.403" fill="#00f"/><path d="M155.996 190.457l3.926 33.66M164.31 192.902l3.14 26.926M183.184 170.23l-27.188 20.227M159.922 224.117l31.113 13.434M191.035 237.55l27.188-20.23M188.992 229.13l21.75-16.185M218.223 217.32l-3.926-33.66M214.297 183.66l-31.113-13.43M208.027 189.637l-24.89-10.742M89.844 129.934L60.69 147.21M82.863 124.8L59.54 138.626M82.422 96.867l7.422 33.067M60.69 147.21l-12.72-11.194" stroke-width="1.2" stroke="#000" stroke-miterlimit="10" fill="none"/><path d="M47.97 136.016l-12.72-11.192M35.25 124.824l6.715-15.558" stroke-width="1.2" stroke="#f00" stroke-miterlimit="10" fill="none"/><path d="M41.965 109.266L48.68 93.71" stroke-width="1.2" stroke="#000" stroke-miterlimit="10" fill="none"/><path d="M30.25 116.824h11v16h-11zm0 0" fill="#fff"/><use xlink:href="#c" x="30.25" y="129.2" fill="#f00"/><path d="M48.68 93.71l33.742 3.157M51.313 101.965l26.992 2.527" stroke-width="1.2" stroke="#000" stroke-miterlimit="10" fill="none"/></g></svg>
